icon-svg/kayo.svg

<svg xmlns="http://www.w3.org/2000/svg" viewBox="0 0 24 24"><path fill="#44739e" d="m4.818 10.99 1.469 3.165h.827l-1.776-3.811Zm.434 3.165h.839L4.688 11.15l-.542.664Zm-2.353 0h.754l.333-2.398 4.147-5.111h-.909L3.279 11.48Zm4.089-7.506h-.827l-1.769 2.19.306-2.19h-.739l-.63 4.497Zm-3.946 0L2 14.159h.747l1.052-7.51Zm11.25 6.024a.462.462 0 0 1-.48-.549l.563-3.845h-.753l-.536 3.885c-.073.879.536 1.409 1.546 1.185l.129-.873a.97.97 0 0 1-.469.197m-.42.877a1.2 1.2 0 0 1-.956-1.399l.529-3.865h-.726l-.557 3.782c-.2 1.512.847 2.358 2.346 2.168l.094-.699a2.6 2.6 0 0 1-.735.013Zm1.45 1.338.956-6.61h-.779l-.976 6.867a.723.723 0 0 1-.826.589l-.1.747c1.199.106 1.616-.837 1.729-1.593Zm1.833-6.61h-.7l-.949 6.534c-.11.805-.48 1.979-1.933 1.836l-.093.682a2.375 2.375 0 0 0 2.699-2.128ZM8.677 12.19l.242-1.782c.15-.664.847-.754 1.064-.461l.11-.785a1.6 1.6 0 0 0-.511-.074 1.42 1.42 0 0 0-1.342 1.123l-.277 2.026a1 1 0 0 0 1.016 1.116 1.3 1.3 0 0 0 .55-.087l.1-.747c-.643.48-1.002-.076-.952-.329m-.881.05.277-2.019a1.587 1.587 0 0 1 2.043-1.229l.093-.683a2.4 2.4 0 0 0-2.839 1.906l-.273 1.995c-.08.616.176 2.215 2.305 1.972l.1-.733a1.224 1.224 0 0 1-1.706-1.209m3.362-3.958h-.747l-.806 5.877h.726Zm.869 0h-.699l-.827 5.877h.72Zm7.982-.17a2.46 2.46 0 0 0-2.508 2.142l-.277 2.063a1.806 1.806 0 0 0 1.973 2.045 2.42 2.42 0 0 0 2.498-2.148l.27-1.946a1.81 1.81 0 0 0-1.952-2.156Zm.923 4.244a1.62 1.62 0 0 1-1.683 1.344 1.267 1.267 0 0 1-1.299-1.43c.02-.17.283-2.109.32-2.272a1.62 1.62 0 0 1 1.573-1.206 1.29 1.29 0 0 1 1.383 1.512c-.014.134-.27 1.943-.29 2.052Zm-1.093-3.417a1.5 1.5 0 0 0-1.429 1.092c-.04.157-.307 2.116-.32 2.293a1.12 1.12 0 0 0 1.179 1.226 1.48 1.48 0 0 0 1.518-1.213c.013-.11.276-1.906.29-2.046a1.152 1.152 0 0 0-1.233-1.352Zm-.486 3.877a.518.518 0 0 1-.51-.609l.264-1.906a.81.81 0 0 1 .732-.657.507.507 0 0 1 .517.5.5.5 0 0 1-.007.1l-.261 1.926a.8.8 0 0 1-.731.646Z"/></svg>

<?xml version="1.0" encoding="UTF-8"?>
<svg width="24px" fill="#44739e" height="24px" viewBox="0 0 24 24" version="1.1" xmlns="http://www.w3.org/2000/svg" xmlns:xlink="http://www.w3.org/1999/xlink">
            <path d="m 4.82,11 1.47,3.167 H 7.117 L 5.34,10.353 Z m 0.434,3.167 h 0.84 L 4.69,11.16 4.147,11.824 Z m -2.354,0 h 0.754 l 0.333,-2.4 4.15,-5.114 H 7.227 L 3.28,11.49 Z M 6.991,6.656 H 6.164 L 4.394,8.847 4.7,6.656 H 3.96 l -0.63,4.5 z m -3.948,0 L 2,14.171 H 2.747 L 3.8,6.656 Z M 14.3,12.684 a 0.462,0.462 0 0 1 -0.48,-0.55 L 14.383,8.287 H 13.63 l -0.537,3.887 c -0.073,0.88 0.537,1.41 1.547,1.186 l 0.13,-0.873 a 0.966,0.966 0 0 1 -0.47,0.197 z m -0.42,0.877 a 1.2,1.2 0 0 1 -0.957,-1.4 l 0.53,-3.867 h -0.727 l -0.557,3.784 c -0.2,1.513 0.847,2.36 2.347,2.17 l 0.094,-0.7 a 2.582,2.582 0 0 1 -0.735,0.013 z m 1.451,1.339 0.957,-6.614 h -0.78 l -0.977,6.871 a 0.723,0.723 0 0 1 -0.826,0.59 l -0.1,0.747 c 1.2,0.106 1.617,-0.837 1.73,-1.594 z m 1.834,-6.614 h -0.7 l -0.95,6.538 c -0.11,0.806 -0.48,1.98 -1.934,1.837 l -0.093,0.683 a 2.377,2.377 0 0 0 2.7,-2.13 z M 8.681,12.2 8.924,10.417 C 9.074,9.753 9.771,9.663 9.988,9.956 L 10.098,9.17 A 1.642,1.642 0 0 0 9.587,9.096 1.417,1.417 0 0 0 8.244,10.22 l -0.277,2.027 a 1,1 0 0 0 1.017,1.117 1.29,1.29 0 0 0 0.55,-0.087 l 0.1,-0.747 C 8.991,13.01 8.631,12.454 8.681,12.2 Z M 7.8,12.25 8.077,10.23 A 1.588,1.588 0 0 1 10.121,9 l 0.093,-0.683 a 2.4,2.4 0 0 0 -2.84,1.907 L 7.1,12.22 c -0.08,0.617 0.177,2.217 2.307,1.974 l 0.1,-0.734 A 1.225,1.225 0 0 1 7.8,12.25 Z M 11.164,8.29 H 10.417 L 9.61,14.171 h 0.727 z m 0.87,0 h -0.7 l -0.827,5.881 h 0.72 z m 7.987,-0.17 a 2.461,2.461 0 0 0 -2.51,2.143 l -0.277,2.064 a 1.807,1.807 0 0 0 1.974,2.047 2.421,2.421 0 0 0 2.5,-2.15 l 0.27,-1.947 A 1.81,1.81 0 0 0 20.025,8.12 Z m 0.924,4.247 a 1.623,1.623 0 0 1 -1.684,1.344 1.268,1.268 0 0 1 -1.3,-1.431 c 0.02,-0.17 0.283,-2.11 0.32,-2.273 a 1.624,1.624 0 0 1 1.574,-1.207 1.289,1.289 0 0 1 1.384,1.513 c -0.014,0.134 -0.27,1.944 -0.29,2.054 z m -1.094,-3.42 a 1.5,1.5 0 0 0 -1.43,1.093 c -0.04,0.157 -0.307,2.117 -0.32,2.294 a 1.119,1.119 0 0 0 1.18,1.227 1.479,1.479 0 0 0 1.519,-1.214 c 0.013,-0.11 0.276,-1.907 0.29,-2.047 A 1.153,1.153 0 0 0 19.856,8.947 Z m -0.486,3.88 a 0.518,0.518 0 0 1 -0.511,-0.61 l 0.264,-1.907 a 0.809,0.809 0 0 1 0.733,-0.657 0.507,0.507 0 0 1 0.517,0.5 0.53,0.53 0 0 1 -0.007,0.1 L 20.1,12.18 a 0.8,0.8 0 0 1 -0.731,0.647 z"/>

</svg>
